icons/server-24.svg

<svg width="24" height="24" viewBox="0 0 24 24" fill="none" xmlns="http://www.w3.org/2000/svg">
<path d="M10.75 6.5C10.3358 6.5 10 6.83579 10 7.25C10 7.66421 10.3358 8 10.75 8H17.25C17.6642 8 18 7.66421 18 7.25C18 6.83579 17.6642 6.5 17.25 6.5H10.75Z" fill="#24292E"/>
<path d="M6 7.25C6 6.83579 6.33579 6.5 6.75 6.5H7.25C7.66421 6.5 8 6.83579 8 7.25C8 7.66421 7.66421 8 7.25 8H6.75C6.33579 8 6 7.66421 6 7.25Z" fill="#24292E"/>
<path d="M10 16.25C10 15.8358 10.3358 15.5 10.75 15.5H17.25C17.6642 15.5 18 15.8358 18 16.25C18 16.6642 17.6642 17 17.25 17H10.75C10.3358 17 10 16.6642 10 16.25Z" fill="#24292E"/>
<path d="M6.75 15.5C6.33579 15.5 6 15.8358 6 16.25C6 16.6642 6.33579 17 6.75 17H7.25C7.66421 17 8 16.6642 8 16.25C8 15.8358 7.66421 15.5 7.25 15.5H6.75Z" fill="#24292E"/>
<path fill-rule="evenodd" clip-rule="evenodd" d="M3.25 2C2.2835 2 1.5 2.7835 1.5 3.75V10.75C1.5 11.1218 1.61595 11.4665 1.81367 11.75C1.61595 12.0335 1.5 12.3782 1.5 12.75V19.75C1.5 20.7165 2.2835 21.5 3.25 21.5H20.75C21.7165 21.5 22.5 20.7165 22.5 19.75V12.75C22.5 12.3782 22.384 12.0335 22.1863 11.75C22.384 11.4665 22.5 11.1218 22.5 10.75V3.75C22.5 2.7835 21.7165 2 20.75 2H3.25ZM3.25 11H20.75C20.8881 11 21 10.8881 21 10.75V3.75C21 3.61193 20.8881 3.5 20.75 3.5H3.25C3.11193 3.5 3 3.61193 3 3.75V10.75C3 10.8881 3.11193 11 3.25 11ZM3.25 12.5C3.11193 12.5 3 12.6119 3 12.75V19.75C3 19.8881 3.11193 20 3.25 20H20.75C20.8881 20 21 19.8881 21 19.75V12.75C21 12.6119 20.8881 12.5 20.75 12.5H3.25Z" fill="#24292E"/>
</svg>

<svg xmlns="http://www.w3.org/2000/svg" width="24" height="24" viewBox="0 0 24 24"><path d="M10.75 6.5a.75.75 0 000 1.5h6.5a.75.75 0 000-1.5h-6.5zM6 7.25a.75.75 0 01.75-.75h.5a.75.75 0 010 1.5h-.5A.75.75 0 016 7.25zm4 9a.75.75 0 01.75-.75h6.5a.75.75 0 010 1.5h-6.5a.75.75 0 01-.75-.75zm-3.25-.75a.75.75 0 000 1.5h.5a.75.75 0 000-1.5h-.5z"/><path fill-rule="evenodd" d="M3.25 2A1.75 1.75 0 001.5 3.75v7c0 .372.116.716.314 1a1.742 1.742 0 00-.314 1v7c0 .966.784 1.75 1.75 1.75h17.5a1.75 1.75 0 001.75-1.75v-7c0-.372-.116-.716-.314-1 .198-.284.314-.628.314-1v-7A1.75 1.75 0 0020.75 2H3.25zm0 9h17.5a.25.25 0 00.25-.25v-7a.25.25 0 00-.25-.25H3.25a.25.25 0 00-.25.25v7c0 .138.112.25.25.25zm0 1.5a.25.25 0 00-.25.25v7c0 .138.112.25.25.25h17.5a.25.25 0 00.25-.25v-7a.25.25 0 00-.25-.25H3.25z"/></svg>
